X:12
T:Riddle. JJo8.012, The
B:J.Johnson Choice Collection Vol 8 1758
Z:vmp.Simon Wilson 2013 www.village-music-project.org.uk
M:C|
L:1/8
Q:1/2=90
K:A
|:c|((3ABA) cA eBAG|((3ABA) cA Bcdf|edca (ec)(ac)|(dB)(ec) A/A/AA:|
|:c|((3ABA) (ae) (fe) (ae)|(dc)(ac) B/B/B Bc|defga2ec|dBec A/A/AA:|

